front/src/img/Rule2.svg

<svg width="68" height="67" viewBox="0 0 68 67" fill="none" xmlns="http://www.w3.org/2000/svg">
<g clip-path="url(#clip0_245_1005)">
<path d="M36.51 16.4844C33.5241 16.4844 30.1346 17.0117 27.3743 18.6283C24.6097 20.2472 22.5265 23.105 22.5265 27.2237C22.5265 29.4241 22.3399 30.0816 21.9667 30.8042C21.5934 31.529 20.8643 32.4577 19.9876 34.5583C19.92 34.7228 19.8939 34.9015 19.9116 35.0785C19.9293 35.2555 19.9903 35.4254 20.0891 35.5734C20.1879 35.7213 20.3216 35.8426 20.4783 35.9267C20.6351 36.0108 20.8101 36.0551 20.988 36.0556H23.1992L23.1949 36.9084C23.1948 36.9156 23.1948 36.9229 23.1949 36.9301V40.452C23.1949 41.4719 23.056 42.4897 23.7613 43.4575C24.115 43.9392 24.6705 44.2799 25.2868 44.4622C25.9052 44.6445 26.6127 44.7074 27.5089 44.7074H30V50.1194C30 50.4071 30.1143 50.6831 30.3178 50.8866C30.5213 51.0901 30.7973 51.2044 31.085 51.2044H43.1068C43.3946 51.2044 43.6706 51.0901 43.874 50.8866C44.0775 50.6831 44.1918 50.4071 44.1918 50.1194V42.5287C44.1918 38.933 45.1249 37.2469 46.173 35.422C47.1777 33.6751 48.2779 31.6831 48.3778 28.53C48.4224 28.4092 48.4452 28.2813 48.445 28.1525C48.445 21.2041 42.7531 16.4887 36.51 16.4887V16.4844ZM36.51 18.6457V18.6544C41.6855 18.6544 46.275 22.3694 46.275 28.1481C46.275 31.0885 45.368 32.4664 44.2916 34.337C43.2153 36.2075 42.0197 38.5251 42.0197 42.5244V49.03H32.17V43.6181C32.17 43.3303 32.0557 43.0543 31.8522 42.8508C31.6488 42.6474 31.3728 42.5331 31.085 42.5331H27.5089C26.732 42.5331 26.2004 42.4658 25.8987 42.3768C25.5949 42.2878 25.5515 42.2227 25.5168 42.1728C25.443 42.073 25.3649 41.5045 25.3649 40.4477V36.9128C25.3736 36.0339 25.3779 35.55 25.3714 35.2505C25.3714 35.1008 25.3714 35.0118 25.3432 34.8361C25.3258 34.7471 25.3258 34.6256 25.1783 34.3912C24.9444 34.1071 24.6104 33.9238 24.2452 33.8791H22.7869C23.1624 33.2086 23.5942 32.3753 23.898 31.7894C24.4188 30.7782 24.6987 29.5651 24.6987 27.215C24.6987 23.7864 26.2112 21.8161 28.4702 20.4945C30.7291 19.1708 33.7888 18.6457 36.51 18.6457ZM36.1802 20.82V20.8244C34.2445 20.8027 31.8402 21.0674 29.8655 22.007C28.8781 22.4757 27.9776 23.1354 27.3939 24.0881C26.8123 25.0429 26.6148 26.2711 26.9186 27.5818C27.2333 28.9272 28.1968 29.8733 29.234 30.1098C30.2713 30.3485 31.2434 30.138 32.1852 29.997C33.1227 29.8559 34.021 29.7518 34.7567 29.882C35.4923 30.0122 36.0782 30.2986 36.688 31.1861C37.339 32.1344 38.0985 32.7984 38.9556 33.1326C39.3708 33.2954 39.8151 33.3711 40.2608 33.3551C40.7065 33.339 41.1442 33.2315 41.5466 33.0393C43.1047 32.2798 43.9987 30.4874 44.1571 28.3C44.3199 26.0324 43.3173 24.0837 41.7918 22.8034C40.2641 21.5231 38.2417 20.8352 36.1802 20.82ZM36.1628 22.9944C37.7469 23.0161 39.3137 23.5586 40.3965 24.47C41.4815 25.3792 42.1043 26.5749 41.9914 28.1481C41.8721 29.8038 41.1451 30.8216 40.5918 31.0928C40.4622 31.1622 40.3182 31.2003 40.1712 31.2041C40.0243 31.2079 39.8785 31.1772 39.7455 31.1145C39.4048 30.9843 38.9513 30.6458 38.4782 29.9579C37.5712 28.6407 36.3299 27.9615 35.1364 27.7488C33.9429 27.5362 32.8189 27.712 31.8597 27.8573C30.9049 27.9984 30.102 28.0852 29.7158 27.9962C29.3317 27.9094 29.2253 27.9094 29.0344 27.0892C28.8347 26.2277 28.9563 25.6939 29.247 25.2186C29.5356 24.7456 30.0651 24.3072 30.7964 23.96C32.2612 23.2656 34.455 22.9814 36.1628 22.9944Z" fill="#FBD566"/>
</g>
<circle cx="34.0042" cy="33.84" r="31.8267" stroke="#FBD566" stroke-width="2.48"/>
<defs>
<clipPath id="clip0_245_1005">
<rect width="34.72" height="34.72" fill="white" transform="translate(16.6445 16.48)"/>
</clipPath>
</defs>
</svg>

<svg xmlns="http://www.w3.org/2000/svg" width="68" height="67" fill="none"><g clip-path="url(#a)"><path fill="#FBD566" d="M36.51 16.484c-2.986 0-6.375.528-9.136 2.144-2.764 1.62-4.848 4.477-4.848 8.596 0 2.2-.186 2.858-.56 3.58-.373.725-1.102 1.654-1.978 3.754a1.085 1.085 0 0 0 1 1.498h2.211l-.004.852V40.452c0 1.02-.139 2.038.566 3.006.354.481.91.822 1.526 1.004.618.182 1.326.245 2.222.245H30v5.412a1.085 1.085 0 0 0 1.085 1.085h12.022a1.085 1.085 0 0 0 1.085-1.085v-7.59c0-3.596.933-5.282 1.981-7.107 1.005-1.747 2.105-3.739 2.205-6.892.044-.12.067-.249.067-.378 0-6.948-5.692-11.663-11.935-11.663v-.005Zm0 2.162v.008c5.175 0 9.765 3.715 9.765 9.494 0 2.94-.907 4.318-1.983 6.189-1.077 1.87-2.272 4.188-2.272 8.187v6.506h-9.85v-5.412a1.085 1.085 0 0 0-1.085-1.085h-3.576c-.777 0-1.309-.067-1.61-.156-.304-.09-.348-.154-.382-.204-.074-.1-.152-.669-.152-1.725v-3.535c.009-.88.013-1.363.006-1.662 0-.15 0-.24-.028-.415-.017-.089-.017-.21-.165-.445a1.434 1.434 0 0 0-.933-.512h-1.458c.375-.67.807-1.504 1.111-2.09.52-1.01.8-2.224.8-4.574 0-3.429 1.513-5.399 3.772-6.72 2.26-1.324 5.319-1.85 8.04-1.85Zm-.33 2.174v.004c-1.935-.021-4.34.243-6.314 1.183-.988.469-1.888 1.128-2.472 2.081-.582.955-.78 2.183-.475 3.494.314 1.345 1.278 2.291 2.315 2.528 1.037.239 2.01.028 2.951-.113.938-.141 1.836-.245 2.572-.115.735.13 1.321.417 1.931 1.304.651.948 1.41 1.612 2.268 1.947a3.256 3.256 0 0 0 2.59-.094c1.559-.76 2.453-2.552 2.611-4.739.163-2.268-.84-4.216-2.365-5.497-1.528-1.28-3.55-1.968-5.612-1.983Zm-.017 2.174c1.584.022 3.15.565 4.234 1.476 1.084.91 1.707 2.105 1.594 3.678-.119 1.656-.846 2.674-1.4 2.945a.942.942 0 0 1-.846.021c-.34-.13-.794-.468-1.267-1.156-.907-1.317-2.148-1.996-3.342-2.21-1.193-.212-2.317-.036-3.276.11-.955.14-1.758.227-2.144.138-.384-.087-.49-.087-.682-.907-.2-.861-.078-1.395.213-1.87.289-.473.818-.912 1.55-1.259 1.464-.694 3.658-.979 5.366-.966Z"/></g><circle cx="34.004" cy="33.84" r="31.827" stroke="#FBD566" stroke-width="2.48"/><defs><clipPath id="a"><path fill="#fff" d="M16.645 16.48h34.72V51.2h-34.72z"/></clipPath></defs></svg>
